!!!OTL: Gottselige Strickerin (3-20), S. 69
!!!id: P0992
**kern
*clefG2
*k[b-]
*F:
{8f
=1
8f
8f
8f
=2
8f
8f
8f
=3
8g
8g
8a
=4
4b-
8b-
=5
4f}
=6
{8f
=7
8b-
8b-
8cc
=8
8dd
8dd
16dd
16cc
=9
8b-
8g
8a
=10
4.b-}
=11
4r
=12
{8b-
=13
32b-
16.cc
8b-
8cc
=14
8dd
8dd
8cc
=15
4.b-
=16
4.g}
=17
{4cc
8dd
=18
8.b-
16a
8f
=19
8g
8a
16.a
32f
=20
4.f}
=21
4r
=22
{8f
=23
8b-
8b-
8cc
=24
8dd
8dd
8cc
=25
4.b-
=26
4.g}
=27
{4cc
8dd
=28
8.b-
16a
8f
=29
8g
8a
32a
16.f
=30
4.g}
==
*-
!!!minrhy: 32
!!!meters: 3/8 ]  ZZ[6
!!!cut: Gottselige Strickerin (3-20), S. 69
!!!reg: Lothringen
!!!trd: PINCK, Louis: Verklingende Weisen, Bd3, Metz 1933
!!!rhy1: X__  X__X__X__  X__X__X__  X__X__X__  X___X__  X___   (x2)
!!!rhy2: X__  X__X__X__  X__X__X_X_  X__X__X__  X___.  0__
!!!key: P0992  32  F 3/8 ]  ZZ[6
!!!mod: SECHSTONSKALA DUR ?]  AMBITUS[6
!!!kad: 142122
!!!akz: 11241_4644_4642_5421_4642_5422_
!!!fot: 'a__b__c__d__cw_dw_
!!!for: 'a__b__c__d__e__f__
!!!fok: '^__~a_^d_Sd_^a_\__
!! PHRAS[VORWIEGEND AUFTAKTIG]
!!!fkt: Trauer, Abschied, Liebe
!! LOTH VKL
!! PR[31] 2K[0] 2G[11] 3K[0] 3G[0] 4A[9] 4Ü[0] 5A[3] 6K[0] 6G[0]
!! 7K[0] 7G[0] 8A[0] MEHR[0] SI[23] ABS[35] SR[11] SP[11]
!! ST[17] 2k[9] 2g[34] 3k[3] 3g[0] 4d[0] 4ü[0] 5d[0] 6k[0] 6g[0]
!! 7k[0] 7g[0] 8d[0] mehr[0] si[46] dm[-23] sr[43] sp[3]
!! 1F[12] 2F[37] 3F[35] 4F[7] LF[0] 2P[7] 3P[2] 4P[0] TRI[0] DF[6] AB[43]
!! TF[0] U3K[0] U3[0] U4[0] U4Ü[0] U5[6] U6K[0] U6[3] U7K[0] U7[3]
!! N1[22] N2K[0] N2[19] N3K[0] N3[19] N4[6] N4Ü[0] N5[19] N6K[0] N6[3]
!!!n7k: 0] N7[0] O1[0] O2K[0] O2[0] O3K[0] O3[0] HÖ[0
